packages/react-icons/icons/flatbed.svg

<svg width="24" height="25" viewBox="0 0 24 25" xmlns="http://www.w3.org/2000/svg"><path fill-rule="evenodd" clip-rule="evenodd" d="M15.0832 6.72461C14.8445 6.72456 14.6155 6.81936 14.4467 6.98815C14.2779 7.15693 14.183 7.38587 14.183 7.6246L14.183 13.1234H8.69195C8.19318 12.7181 7.55715 12.4752 6.86438 12.4752C6.17161 12.4752 5.53557 12.7181 5.0368 13.1234H2.90146C2.40441 13.1234 2.00146 13.5264 2.00146 14.0234C2.00146 14.5205 2.40441 14.9234 2.90146 14.9234H3.99936C3.97633 15.0706 3.96438 15.2215 3.96438 15.3752C3.96438 16.9768 5.26275 18.2752 6.86438 18.2752C8.466 18.2752 9.76438 16.9768 9.76438 15.3752C9.76438 15.2215 9.75242 15.0706 9.7294 14.9234H15.2332C15.2102 15.0706 15.1982 15.2215 15.1982 15.3752C15.1982 16.9768 16.4966 18.2752 18.0982 18.2752C19.6999 18.2752 20.9982 16.9768 20.9982 15.3752C20.9982 15.2215 20.9863 15.0706 20.9633 14.9234H21.0984C21.3371 14.9234 21.566 14.8286 21.7348 14.6598C21.9036 14.491 21.9984 14.2621 21.9984 14.0234L21.9983 11.4546C21.9983 11.2144 21.9023 10.9842 21.7316 10.8152L17.8647 6.98555C17.6962 6.8187 17.4687 6.72507 17.2316 6.72503L15.0832 6.72461ZM19.9258 13.1234H20.1984L20.1983 11.83L16.8611 8.52496L15.983 8.52478L15.983 13.1234H16.2707C16.7694 12.7181 17.4055 12.4752 18.0982 12.4752C18.791 12.4752 19.427 12.7181 19.9258 13.1234ZM6.86438 14.2752C6.25687 14.2752 5.76438 14.7677 5.76438 15.3752C5.76438 15.9827 6.25687 16.4752 6.86438 16.4752C7.47189 16.4752 7.96438 15.9827 7.96438 15.3752C7.96438 14.7677 7.47189 14.2752 6.86438 14.2752ZM18.0982 14.2752C17.4907 14.2752 16.9982 14.7677 16.9982 15.3752C16.9982 15.9827 17.4907 16.4752 18.0982 16.4752C18.7058 16.4752 19.1982 15.9827 19.1982 15.3752C19.1982 14.7677 18.7058 14.2752 18.0982 14.2752Z"/></svg>

<svg xmlns="http://www.w3.org/2000/svg" width="24" height="25"><path fill-rule="evenodd" d="M15.083 6.725a.9.9 0 0 0-.9.9v5.498H8.692a2.888 2.888 0 0 0-1.828-.648c-.692 0-1.328.243-1.827.648H2.9a.9.9 0 0 0 0 1.8H4a2.9 2.9 0 1 0 5.73 0h5.504a2.9 2.9 0 1 0 5.73 0h.135a.9.9 0 0 0 .9-.9v-2.568a.9.9 0 0 0-.266-.64l-3.867-3.83a.9.9 0 0 0-.633-.26h-2.149Zm4.843 6.398h.272V11.83l-3.337-3.305h-.878v4.598h.288a2.888 2.888 0 0 1 1.827-.648c.693 0 1.329.243 1.828.648ZM6.864 14.275a1.1 1.1 0 1 0 0 2.2 1.1 1.1 0 0 0 0-2.2Zm11.234 0a1.1 1.1 0 1 0 0 2.2 1.1 1.1 0 0 0 0-2.2Z" clip-rule="evenodd"/></svg>
